X:7036
T:The Longford Tinker
O:england
S:Bothy Band
N:I like the 2nd bar of part 2 better as |d2fd +e2c2+ dB|
N:- it resembles the scottish reel Jenny Dang The Weaver,
N:of which this is an Irish version.
M:4/4
L:1/8
R:Reel
K:BMin
dBBA B3 c|dB B2 fBeB|dBBA B2 dB|ABde f3 e|\
dB B2 fB B2|dB B2 f2 fg|aA A2 ABAF|ABde fgfe||\
d2 fd efge|defa g2 fe|d2 fd efge|fgaf g2 fe|\
d2 fd efge|defa g2 ga|bgaf gfed|faaf gfed||\
fa a2 fa a2|faaf gfed|gb b2 gb b2|gbbf gfeg|\
fa a2 fa a2|faaf g2 ga|bgaf gfed|faaf gfef||


